X: 4776
T: Boys Of Malin, The
R: reel
M: 4/4
K: Gmajor
GABc dGBd|edce dcBA|GABc dGBd|edAB c2BA|
GBBG dGBd|edce dcBA|GABc dGBd|edAB cdef||
gG G2 BGBd|gagf edef|gG G2 BGBd|cBAB cdef|
gG G2 BGBd|gagf e3f|geed edcB|cBAB c2BA||
GdBd GdBd|GdBd c2BA|GdBd GdBd|edAB c2BA|
GdBd GdBd|GdBd c2BA|GdBd GdBd|edAB c2BA||

